32x32/apps/nsight.svg

<svg height="32" width="32" xmlns="http://www.w3.org/2000/svg"><rect height="24" opacity=".2" rx="12" transform="matrix(0 -1 -1 0 0 0)" width="24" x="-29" y="-28"/><rect fill="#4ca341" height="24" rx="12" transform="matrix(0 -1 -1 0 0 0)" width="24" x="-28" y="-28"/><path d="m16 4c-6.648 0-12 5.352-12 12 0 .169.019.333.025.5a11.962 11.962 0 0 1 11.975-11.5c6.48 0 11.712 5.088 11.975 11.5.006-.167.025-.331.025-.5 0-6.648-5.352-12-12-12z" fill="#f4f4f7" opacity=".2"/><path d="m16 3a14 14 0 0 0 -6.5 1.61 14 14 0 0 1 7.5 12.39 14 14 0 0 1 -7.5 12.39 14 14 0 0 0 6.5 1.61 14 14 0 0 0 14-14 14 14 0 0 0 -14-14z" opacity=".2"/><g fill="#f4f4f7"><path d="m16 2a14 14 0 0 0 -6.5 1.61 14 14 0 0 1 7.5 12.39 14 14 0 0 1 -7.5 12.39 14 14 0 0 0 6.5 1.61 14 14 0 0 0 14-14 14 14 0 0 0 -14-14z"/><path d="m16 2a14 14 0 0 0 -6.5 1.61 14 14 0 0 1 .94.554 14 14 0 0 1 5.56-1.164 14 14 0 0 1 13.979 13.586 14 14 0 0 0 .021-.586 14 14 0 0 0 -14-14zm.977 14.47a14 14 0 0 1 -7.477 11.92 14 14 0 0 0 .959.8" opacity=".2"/></g></svg>

<svg xmlns="http://www.w3.org/2000/svg" width="32" height="32" version="1"><rect style="opacity:.2" width="24" height="24" x="-29" y="-28" rx="12" ry="12" transform="matrix(0 -1 -1 0 0 0)"/><rect style="fill:#4ca341" width="24" height="24" x="-28" y="-28" rx="12" ry="12" transform="matrix(0 -1 -1 0 0 0)"/><path style="fill:#f4f4f7;opacity:.2" d="M16 4C9.352 4 4 9.352 4 16c0 .169.019.333.025.5A11.962 11.962 0 0 1 16 5c6.48 0 11.712 5.088 11.975 11.5.006-.167.025-.331.025-.5 0-6.648-5.352-12-12-12z"/><path style="opacity:.2" d="M16 3a14 14 0 0 0-6.5 1.61A14 14 0 0 1 17 17a14 14 0 0 1-7.5 12.39A14 14 0 0 0 16 31a14 14 0 0 0 14-14A14 14 0 0 0 16 3z"/><path style="fill:#f4f4f7" d="M16 2a14 14 0 0 0-6.5 1.61A14 14 0 0 1 17 16a14 14 0 0 1-7.5 12.39A14 14 0 0 0 16 30a14 14 0 0 0 14-14A14 14 0 0 0 16 2z"/><path style="opacity:.2;fill:#f4f4f7" d="M16 2a14 14 0 0 0-6.5 1.61 14 14 0 0 1 .94.554A14 14 0 0 1 16 3a14 14 0 0 1 13.979 13.586A14 14 0 0 0 30 16 14 14 0 0 0 16 2zm.977 14.47A14 14 0 0 1 9.5 28.39a14 14 0 0 0 .959.8b9cbeA14 14 0 0 0 17 17a14 14 0 0 0-.023-.53z"/></svg>
